X:1
T:Title
%%score { ( 1 3 ) | ( 2 4 ) }
L:1/8
Q:1/4=104
M:4/4
K:Ab
V:1 treble nm="Grand Piano"
V:3 treble 
V:2 bass 
V:4 bass 
V:1
 [CE]2 [CA]2 [Ec][DB] [CA]2 | [CA]2 [Ec]2 BA F2 | z4 z2 .A2 | z4 B4 | [CE]2 [CA]2 [Ec][DB] [CA]2 | %5
w: W.~A.~Post * * * *|||||
 [CA]2 [Ec]2 BA F2 | z4 z2 .[EA]2 | [Ec]2 [DB]2 [CA]4 | [Ac]2 [Ac]2 [Ac]2 [GB]2 | %9
w: ||||
 [GB][Ac][Bd][ce] [Bd]2 c2 | c2 c2 ec A2 | A2 GA z2 _D2 | [CE]2 [CA]2 [Ec][DB] [CA]2 | %13
w: ||||
 [CA]2 [Ec]2 BA F2 | z4 z2 .[EA]2 |[M:8/4] [Ec]2 [DB]2 [CA]4 z8 |] %16
w: |||
V:2
 [A,,A,]2 [A,,E,]2 [A,,A,]2 [A,,A,]2 | [A,,A,]2 [A,,E,]2 [D,F,D]2 [D,A,D]2 | %2
 [D,A,D]2 [D,A,D]2 [A,,A,]2 [C,A,][E,G,] | z4 E2 z2 | [A,,A,]2 [A,,E,]2 [A,,A,]2 [A,,A,]2 | %5
 [A,,A,]2 [A,,E,]2 [D,F,D]2 [D,A,D]2 | [D,F,D]2 [D,A,D]2 A,,2 C,D, | [E,A,]2 [E,G,]2 [A,,E,]4 | %8
 [A,E]2 [A,E]2 [E,E]2 [E,E]2 | [E,E]2 [E,E]2[K:treble] [A,E]2 [A,EA]2 | %10
 [A,EA]2 [A,EA]2 [A,A]-[A,EA][K:bass] [A,CE]2 | z4 E2 z2 | [A,,A,]2 [A,,E,]2 [A,,A,]2 [A,,A,]2 | %13
 [A,,A,]2 [A,,E,]2 [D,F,D]2 [D,A,D]2 | [D,F,D]2 [D,A,D]2 A,,2 C,D, | %15
[M:8/4] [E,A,]2 [E,G,]2 [A,,E,]4 z8 |] %16
V:3
 x8 | x8 | F2 F2 [CE]2 E-[EB] | c2 B2 z2 D2 | x8 | x8 | A2 F2 [A,CE]2 A,-[A,Fd] | x8 | x8 | x8 | %10
 x8 | z2 =D2 B4 | x8 | x8 | A2 F2 [A,CE]2 A,-[A,Fd] |[M:8/4] x16 |] %16
V:4
 x8 | x8 | x8 | [A,E]2 [F,B,=D]2 [E,G,]4 | x8 | x8 | x8 | x8 | x8 | x4[K:treble] x4 | %10
 z4 .C2[K:bass] z2 | [F,B,=D]2 [B,,B,]2 [E,G,]4 | x8 | x8 | x8 |[M:8/4] x16 |] %16

